X:42
T:Lord Bateman's Hornpipe. Alex50.42
M:C
L:1/8
Z:vmp. Peter Dunk 2015
B:Alexander's 50 New Scotch & Irish Reels and H'pipes, ca1825
Q:1/4=140
K:Amix
A2|d2 fd (cd)(Bc)|(AB)(GA) (FG)(EF)|DFAd BGBd|efge dcBA|d2 fd cdBc|
ABGA FGEF|DFAd BGBd|cABc d2::cd|efec Aceg|fefd Adfa|
gfeg fedf|(3efe (3dcB A2 cd|efec Aceg|fefd Adfa|gfeg fedf|e2a2a2!D.C.!:|

